X:2330
T:Dalbopolska efter Niklas Larsson (EÖ19)
S:efter Niklas Larsson
B:EÖ, nr 19
O:Svarteborg, Bohuslän
R:Polska
N:ur EÖ: Från Dalsland
Z:Nils L
M:3/4
L:1/8
K:D
a2 ((3faf) d2 | DF Ad (fg) | b>a (3fgf (3edc | d2 fa d'2 | 
a2 (3faf d2 | DF Ad (fg) | b>a gf ed | ce d4 || 
(de/f/ g)(f g)(a | b)f gf g2- | g>f ed cd | (3BcB A4 | [dD]2 F>A Gz/B/ |
B>A F>G E2 | D2 F>A d>f | (3ece [dD]4 :|
(:musicend:)
(:music:)
